X:1
T:Harvat, 87.87.87
T:John Sebastian Bach Hodges (1830-1915)
T:Harvat, 87.87.87
T:Public Domain
C:John Sebastian Bach Hodges (1830-1915)
Z:Public Domain
%%score ( 1 2 ) ( 3 4 )
L:1/8
M:4/4
K:C
V:1 treble 
V:2 treble 
V:3 bass 
V:4 bass 
V:1
 [EG]2 G2 | (AB) [Ec]2 [DB]2 [Fd]2 | [Ec]2 [EG]2 [Ac]2 (BA) | [EG]2 [EB]2 [^FA]2 ([EG][DF]) | %4
 E4 E2 (^F^G) | [EA]2 [^GB]2 [Ac]2 (Bc) | [Gd]2 [FG]2 [Ee]2 (dc) | [GB]2 [Fd]2 [Ec]2 (BA) | %8
 G4 G2 [Ec]2 | [Fc]2 (BA) [EG]2 [^Fe]2 | [Ge]2 [Gd]2 G2 z c x | [FA]2 [Ec]2 [DB]2 [Fd]2 | [Ec]4 |] %13
V:2
 x2 G2 | F2 x6 | x6 ^F2 | x8 | E4 E2 E2 | x6 ^F2 | x6 ^F2 | x6 ^F2 | G4 G2 x2 | x2 ^F2 x4 | %10
 x4 e3 G2 | x8 | x4 |] %13
V:3
 [C,C]2 [E,C]2 | [F,C]2 [C,C]2 [G,D]2 [G,B,]2 | [C,C]2 [C,C]2 [A,,E]2 [B,,^D]2 | %3
 [E,E]2 [G,,B,]2 [A,,C]2 (B,A,) | [E,G,]4 [E,^G,]2 (A,B,) | [E,C]2 [E,E]2 [A,C]2 [A,C]2 | %6
 [G,B,]2 [G,B,]2 [C,C]2 (B,A,) | [E,G,]2 [B,,G,]2 [C,G,]2 [D,C]2 | [G,B,]4 [CE]2 [_B,C]2 | %9
 [A,C]2 [B,D]2 [CE]2 [A,C]2 | [G,C]2 [G,B,]2 [C,C]2 [E,C]2 x | [F,C]2 (CG,) G,2 G,2 | [C,G,]4 |] %13
V:4
 x4 | x8 | x8 | x6 B,,2 | x6 E,2 | x8 | x6 D,2 | x8 | x8 | x8 | x9 | x2 C,2 G,2 G,2 | x4 |] %13

